svg/l/GR.svg

<svg width="32" height="24" viewBox="0 0 32 24" fill="none" xmlns="http://www.w3.org/2000/svg">
<g clip-path="url(#clip0_270_67385)">
<rect width="32" height="24" fill="white"/>
<path fill-rule="evenodd" clip-rule="evenodd" d="M0 0H32V24H0V0Z" fill="#F7FCFF"/>
<path fill-rule="evenodd" clip-rule="evenodd" d="M0 5.5H32V8.45683H0V5.5ZM0 10.8151H32V13.7719H0V10.8151ZM32 15.9432H0V18.9H32V15.9432Z" fill="#4564F9"/>
<path fill-rule="evenodd" clip-rule="evenodd" d="M0 0H32V3H0V0Z" fill="#4564F9"/>
<rect y="21" width="32" height="3" fill="#4564F9"/>
<path fill-rule="evenodd" clip-rule="evenodd" d="M0 0H15V13.8H0V0Z" fill="#4564F9"/>
<path fill-rule="evenodd" clip-rule="evenodd" d="M6 0H9V5.50386H15V8.43867H9V14.5H6V8.43867H0V5.50386H6V0Z" fill="#F7FCFF"/>
</g>
<defs>
<clipPath id="clip0_270_67385">
<rect width="32" height="24" fill="white"/>
</clipPath>
</defs>
</svg>

<svg width="32" height="24" fill="none" xmlns="http://www.w3.org/2000/svg">
  <mask id="a" maskUnits="userSpaceOnUse" x="0" y="0" width="32" height="24">
    <path fill="#fff" d="M0 0h32v24H0z"/>
  </mask>
  <g mask="url(#a)">
    <path fill-rule="evenodd" clip-rule="evenodd" d="M0 0h32v24H0V0z" fill="#F7FCFF"/>
    <path fill-rule="evenodd" clip-rule="evenodd" d="M0 5.5h32v2.957H0V5.5zm0 5.315h32v2.957H0v-2.957zm32 5.128H0V18.9h32v-2.957zM0 0h32v3H0V0z" fill="#4564F9"/>
    <path fill="#4564F9" d="M0 21h32v3H0z"/>
    <path fill-rule="evenodd" clip-rule="evenodd" d="M0 0h15v13.8H0V0z" fill="#4564F9"/>
    <path fill-rule="evenodd" clip-rule="evenodd" d="M6 0h3v5.504h6v2.935H9V14.5H6V8.439H0V5.504h6V0z" fill="#F7FCFF"/>
  </g>
</svg>
